svgs/sharp-regular/building-user.svg

<svg xmlns="http://www.w3.org/2000/svg" viewBox="0 0 640 512"><!--! Font Awesome Pro 6.6.0 by @fontawesome - https://fontawesome.com License - https://fontawesome.com/license (Commercial License) Copyright 2024 Fonticons, Inc. --><path d="M48 48l0 416 96 0 0-112 96 0 0 112 96 0 0-416L48 48zM0 0L48 0 336 0l48 0 0 48 0 311L317.1 512 48 512 0 512l0-48L0 48 0 0zM88 88l80 0 0 80-80 0 0-80zm208 0l0 80-80 0 0-80 80 0zM88 216l80 0 0 80-80 0 0-80zm208 0l0 80-80 0 0-80 80 0zm120 56a80 80 0 1 1 160 0 80 80 0 1 1 -160 0zM584 384l56 128-288 0 56-128 176 0z"/></svg>

<svg xmlns="http://www.w3.org/2000/svg" viewBox="0 0 640 512"><!--! Font Awesome Pro 6.4.2 by @fontawesome - https://fontawesome.com License - https://fontawesome.com/license (Commercial License) Copyright 2023 Fonticons, Inc. --><path d="M48 48V464h96V352h96V464h96V48H48zM0 0H48 336h48V48 359L317.1 512H48 0V464 48 0zM88 88h80v80H88V88zm208 0v80H216V88h80zM88 216h80v80H88V216zm208 0v80H216V216h80zm120 56a80 80 0 1 1 160 0 80 80 0 1 1 -160 0zM584 384l56 128H352l56-128H584z"/></svg>
